X: 3386
T: Beoga
R: reel
M: 4/4
K: Bminor
|:B2bf abfd|dcdf edcd|B2bf abd'c'|b4 befa|
b3b abfd|dcdf edcd|Bcd=f ^fB~B2|defd edcd:|
|:Bcde fB~B2|_Bcde fB~B2|Acde fA~A2|_Acde fA~A2|
Gcde fgfe|dcGc dcFc|Bcde fgfe|dccB ^AcFc:|

